X: 8
T: Whelan's
R: jig
M: 6/8
L: 1/8
K: Edor
|:E3 BAF|FEB AFD|E3 BAF|dAF FED|
E3 BAF|FEB AFA|B/c/dB BAF|dAF FED:|
|:B3 e3|fed e3|BAB g2e|fdB AFA|
B3 e3|fed e2 f|g3 f3|edB AFA:|


Tune 1447	Setting 24372

